svgs/light/table-cells-large.svg

<svg xmlns="http://www.w3.org/2000/svg" viewBox="0 0 512 512"><!--! Font Awesome Pro 6.6.0 by @fontawesome - https://fontawesome.com License - https://fontawesome.com/license (Commercial License) Copyright 2024 Fonticons, Inc. --><path d="M272 64l0 176 208 0 0-144c0-17.7-14.3-32-32-32L272 64zm-32 0L64 64C46.3 64 32 78.3 32 96l0 144 208 0 0-176zM32 272l0 144c0 17.7 14.3 32 32 32l176 0 0-176L32 272zM272 448l176 0c17.7 0 32-14.3 32-32l0-144-208 0 0 176zM0 96C0 60.7 28.7 32 64 32l384 0c35.3 0 64 28.7 64 64l0 320c0 35.3-28.7 64-64 64L64 480c-35.3 0-64-28.7-64-64L0 96z"/></svg>

<svg xmlns="http://www.w3.org/2000/svg" viewBox="0 0 512 512"><!--! Font Awesome Pro 6.4.0 by @fontawesome - https://fontawesome.com License - https://fontawesome.com/license (Commercial License) Copyright 2023 Fonticons, Inc. --><path d="M272 64V240H480V96c0-17.7-14.3-32-32-32H272zm-32 0H64C46.3 64 32 78.3 32 96V240H240V64zM32 272V416c0 17.7 14.3 32 32 32H240V272H32zM272 448H448c17.7 0 32-14.3 32-32V272H272V448zM0 96C0 60.7 28.7 32 64 32H448c35.3 0 64 28.7 64 64V416c0 35.3-28.7 64-64 64H64c-35.3 0-64-28.7-64-64V96z"/></svg>
